site/img/logos/appian.svg

<?xml version="1.0" encoding="UTF-8"?>
<svg width="400px" height="360px" viewBox="0 0 400 360" version="1.1" xmlns="http://www.w3.org/2000/svg" xmlns:xlink="http://www.w3.org/1999/xlink">
    <title>logos/appian</title>
    <g id="logos/appian" stroke="none" stroke-width="1" fill="none" fill-rule="evenodd">
        <path d="M129.936893,163.683466 C146.886778,163.683466 155.146821,172.373309 155.310327,190.642955 L155.312804,191.199514 L155.312804,234.307989 C155.312804,241.034134 154.701336,245.620142 152.866933,249.900416 C149.809594,257.849497 142.166247,262.435505 130.854094,262.435505 C123.683246,262.435505 118.848355,260.683536 114.066554,256.608882 L113.732998,256.320828 L113.732998,294.843295 L94.4717644,294.843295 L94.4717644,165.212136 L112.510062,165.212136 L112.510062,171.326813 C117.09607,165.823603 122.293546,163.683466 129.936893,163.683466 Z M201.172883,163.683466 C218.122769,163.683466 226.382811,172.373309 226.546317,190.642955 L226.548794,191.199514 L226.548794,234.307989 C226.548794,241.034134 225.937327,245.620142 224.102923,249.900416 C221.045585,257.849497 213.402238,262.435505 202.090085,262.435505 C194.919236,262.435505 190.084346,260.683536 185.302545,256.608882 L184.968989,256.320828 L184.968989,294.843295 L165.707755,294.843295 L165.707755,165.212136 L183.746053,165.212136 L183.746053,171.326813 C188.332061,165.823603 193.529537,163.683466 201.172883,163.683466 Z M297.479051,163.683466 C317.455702,163.683466 326.345311,171.77401 326.521106,189.735017 L326.523768,190.282313 L326.523768,252.957755 C326.523768,254.005985 326.568138,254.965477 326.656877,255.954548 L326.73175,256.703746 C326.759481,256.95656 326.789985,257.213071 326.823263,257.475129 L326.931413,258.279789 C326.950825,258.417288 326.97093,258.556636 326.991728,258.698064 L327.124837,259.573438 L327.124837,259.573438 L327.355697,261.004356 L327.355697,261.004356 L327.44097,261.518303 L308.48547,261.518303 L308.179736,255.403626 C304.51093,260.601102 299.00772,263.046973 290.141438,263.046973 C274.402259,263.046973 266.154323,255.855378 265.990939,241.768843 L265.988463,241.339868 L265.988463,229.721981 C265.988463,218.630241 269.692324,212.82973 279.561082,208.874998 L280.312837,208.5818 C280.5673,208.485185 280.825655,208.38967 281.08794,208.2952 L281.886624,208.014877 L306.956801,199.760062 L306.956801,190.89378 C306.956801,183.250434 303.593728,179.887361 296.867583,179.887361 C289.947321,179.887361 286.284215,183.144517 286.16967,190.241638 L286.166898,190.588046 L286.166898,197.314192 L267.822866,197.314192 L267.822866,190.282313 C267.822866,172.549748 277.60635,163.683466 297.479051,163.683466 Z M256.510713,165.212136 L256.510713,260.906836 L236.943746,260.906836 L236.943746,165.212136 L256.510713,165.212136 Z M375.135453,163.683466 C381.555864,163.683466 387.976275,165.823603 391.950815,169.49241 C393.785219,171.021079 395.313888,173.161216 396.23109,175.607087 L396.44255,176.075716 L396.44255,176.075716 L396.637221,176.52967 L396.637221,176.52967 L396.815927,176.971883 C396.872925,177.117657 396.9274,177.261963 396.979487,177.405291 L397.128724,177.83283 C397.247349,178.187481 397.35191,178.539075 397.444547,178.895255 L397.550126,179.325361 L397.550126,179.325361 L397.645079,179.762805 L397.645079,179.762805 L397.73023,180.210522 L397.73023,180.210522 L397.806399,180.671446 L397.806399,180.671446 L397.874409,181.148513 L397.874409,181.148513 L397.935081,181.644658 L397.935081,181.644658 L397.989238,182.162816 L397.989238,182.162816 L398.060053,182.987747 L398.060053,182.987747 L398.101516,183.573778 L398.101516,183.573778 L398.157142,184.514276 L398.157142,184.514276 L398.239189,186.270106 L398.239189,186.270106 L398.371227,189.670845 L398.371227,260.906836 L378.804259,260.906836 L378.804259,190.588046 C378.804259,182.638966 375.135453,178.97016 368.409308,178.97016 C361.788259,178.97016 358.129753,182.525212 358.017041,190.218566 L358.014356,190.588046 L358.014356,260.906836 L338.447389,260.906836 L338.447389,165.212136 L356.791421,165.212136 L356.791421,171.938281 C362.29463,166.129337 367.79784,163.683466 375.135453,163.683466 Z M83.1596114,126.689669 L83.1596114,260.906836 L66.3442488,260.906836 L66.3442488,260.601102 L64.8155795,260.601102 L64.8155795,215.046756 L40.6626041,222.995836 L39.8597078,223.311038 L39.8597078,223.311038 L38.3799168,223.878837 L38.3799168,223.878837 L37.6966823,224.149661 L37.6966823,224.149661 L37.2600259,224.331556 C37.1884401,224.362149 37.1174365,224.392918 37.0469954,224.423919 L36.630943,224.613166 C34.4463302,225.642154 32.7976958,227.024286 31.0438694,230.602928 L30.8791204,230.944917 L21.4013706,260.906836 L0.611467731,260.906836 L47.0830153,126.689669 L83.1596114,126.689669 Z M307.262535,214.741022 L293.198777,219.32703 C287.793839,221.128676 285.927848,223.815059 285.862929,230.282638 L285.861164,237.976796 C285.861164,245.008675 289.224237,248.371747 295.950382,248.371747 C303.481326,248.371747 307.153769,244.810053 307.260153,236.516894 L307.262535,236.142392 L307.262535,214.741022 Z M124.739417,178.97016 C117.514691,178.97016 113.846753,182.526948 113.735603,190.224203 L113.732998,190.588046 L113.732998,234.919457 C113.732998,242.562804 117.401804,246.537344 124.739417,246.537344 C131.96238,246.537344 135.63029,242.686038 135.743149,235.275051 L135.745836,234.919457 L135.745836,190.588046 C135.745836,182.638966 132.07703,178.97016 124.739417,178.97016 Z M195.975408,178.97016 C188.750681,178.97016 185.082743,182.526948 184.971594,190.224203 L184.968989,190.588046 L184.968989,234.919457 C184.968989,242.562804 188.637795,246.537344 195.975408,246.537344 C203.19837,246.537344 206.866281,242.686038 206.97914,235.275051 L206.981827,234.919457 L206.981827,190.588046 C206.981827,182.638966 203.31302,178.97016 195.975408,178.97016 Z M64.5098456,147.785305 L56.866499,147.785305 L38.2167332,206.791941 L64.5098456,198.231393 L64.5098456,147.785305 Z M247.032963,129.13554 L260.485253,142.58783 L260.485253,143.810765 L247.032963,157.263055 L246.115762,157.263055 L232.969205,143.810765 L232.969205,142.58783 L246.115762,129.13554 L247.032963,129.13554 Z" id="Shape" fill="#FFFFFF" fill-rule="nonzero"></path>
    </g>
</svg>

<svg width="400" height="360" viewBox="0 0 400 360" xmlns="http://www.w3.org/2000/svg"><path d="M129.937 163.683c16.95 0 25.21 8.69 25.373 26.96l.003.557v43.108c0 6.726-.612 11.312-2.446 15.592-3.057 7.95-10.7 12.536-22.013 12.536-7.17 0-12.006-1.752-16.787-5.827l-.334-.288v38.522H94.472v-129.63h18.038v6.114c4.586-5.503 9.784-7.644 17.427-7.644zm71.236 0c16.95 0 25.21 8.69 25.373 26.96l.003.557v43.108c0 6.726-.612 11.312-2.446 15.592-3.057 7.95-10.7 12.536-22.013 12.536-7.17 0-12.006-1.752-16.787-5.827l-.334-.288v38.522h-19.261v-129.63h18.038v6.114c4.586-5.503 9.784-7.644 17.427-7.644zm96.306 0c19.977 0 28.866 8.091 29.042 26.052l.003.547v62.676c0 1.048.044 2.007.133 2.997l.075.749c.027.253.058.51.091.771l.108.805.06.418.134.875.23 1.431.086.514h-18.956l-.305-6.114c-3.67 5.197-9.172 7.643-18.039 7.643-15.739 0-23.987-7.192-24.15-21.278l-.003-.43v-11.617c0-11.092 3.704-16.892 13.573-20.847l.752-.293c.254-.097.513-.192.775-.287l.799-.28 25.07-8.255v-8.866c0-7.644-3.363-11.007-10.09-11.007-6.92 0-10.583 3.258-10.697 10.355l-.003.346v6.726h-18.344v-7.032c0-17.732 9.783-26.599 29.656-26.599zm-40.968 1.53v95.694h-19.567v-95.695h19.567zm118.624-1.53c6.42 0 12.841 2.14 16.816 5.81 1.834 1.528 3.363 3.668 4.28 6.114l.212.469.194.454.179.442c.057.146.111.29.163.433l.15.428c.118.354.223.706.316 1.062l.105.43.095.438.085.448.076.46.068.478.061.496.054.518.071.825.042.586.055.94.082 1.756.132 3.4v71.237h-19.567v-70.319c0-7.949-3.669-11.618-10.395-11.618-6.62 0-10.28 3.555-10.392 11.249l-.003.369v70.319h-19.567v-95.695h18.344v6.726c5.504-5.809 11.007-8.255 18.344-8.255zM83.16 126.69v134.217H66.344v-.306h-1.528v-45.554l-24.153 7.949-.803.315-1.48.568-.683.27-.437.183c-.072.03-.143.06-.213.092l-.416.19c-2.185 1.028-3.833 2.41-5.587 5.989l-.165.342-9.478 29.962H.611L47.083 126.69H83.16zm224.103 88.051l-14.064 4.586c-5.405 1.802-7.271 4.488-7.336 10.956l-.002 7.694c0 7.032 3.363 10.395 10.09 10.395 7.53 0 11.203-3.562 11.31-11.855l.002-.375v-21.401zm-182.524-35.77c-7.224 0-10.892 3.556-11.003 11.253l-.003.364v44.331c0 7.644 3.669 11.618 11.006 11.618 7.223 0 10.891-3.851 11.004-11.262l.003-.356v-44.331c0-7.949-3.669-11.618-11.007-11.618zm71.236 0c-7.224 0-10.892 3.556-11.003 11.253l-.003.364v44.331c0 7.644 3.669 11.618 11.006 11.618 7.223 0 10.891-3.851 11.004-11.262l.003-.356v-44.331c0-7.949-3.669-11.618-11.007-11.618zM64.51 147.784h-7.644l-18.65 59.007 26.294-8.56v-50.447zm182.523-18.65l13.452 13.453v1.223l-13.452 13.452h-.917l-13.147-13.452v-1.223l13.147-13.452h.917z" fill="#FFF" fill-rule="nonzero"/></svg>
